!!!OTL: Der Kuss.
!!!OTL-incipit: BUSSERLS GEBN BUSSERLS NEHMN
!!!ARE: Europa, Mitteleuropa, Deutschland, Bayern; Tirol
!!!SCT: Z1196
!!!YEM: Copyright 1995, estate of Helmut Schaffrath.
**kern	**text
*ICvox	*
*M3/4	*
*k[f#c#g#d#]	*
*E:	*
=1	=1
!LO:TX:a:t=Tyroliſch und Bayriſch.	!
{4b	Bußerls
8g#L	.
8eJ	.
8cc#L	geb'n,
8bJ	.
=2	=2
4b	Bußerls
8aL	.
8f#J	.
8d#L	nehm'n,
8BJ}	.
=3	=3
{4b	das
8cc#L	iſt
8bJ	.
8aL	kei
8bJ	.
=4	=4
4g#}	Sünd'
{4b/	und
4ee	das
=5	=5
4b	hat
8g#L	mi
8eJ	.
8cc#L	mei
8bJ	.
=6	=6
4b	Mut-
8aL	-ter
8f#J	.
8d#L	g'lehrt
8BJ}	.
=7	=7
{4b	als
8cc#L	a
8bJ	.
8aL	klans
8bJ	.
=8	=8
2g#}	Kind;
=||	=||
{8g#L	und's
8f#J	.
=9	=9
4.e	Fech-
8d#	-ten
4e	und
=10	=10
4.f#	Rau-
8cc#}	-fen
{4b	is
=11	=11
4.b/	alle-
8a	-weil
4f#	mei
=12	=12
2e}	Freud',
{8cc#	biſt
8b	mir
=13	=13
4.b	lie-
8d#	-ber
4e	als
=14	=14
4.f#	Sau-
8cc#}	-fen
{4b	und
=15	=15
2b	Wei-
8aL	-ber-
8f#J	.
=16	=16
2.e}	-leut'!
==	==
!!!AGN: Liebes - Lied
!!!ONB: ESAC (Essen Associative Code) Database: ZUCCAL
!!!AMT: simple triple
!!!AIN: vox
!!!EED: Helmut Schaffrath
!!!EEV: 1.0
!!!GTL: V. Lieder der Minne.
!!!URL-scan: https://www.digitale-sammlungen.de/de/view/bsb11160573?page=400
!!!ENC: Anna Maria Matuszewska
!!!EEV: 2025/02/05
*-	*-
